dist/svgs/unicons/line/notes.svg

<svg xmlns="http://www.w3.org/2000/svg" data-name="Layer 1" viewBox="0 0 24 24"><path d="M16 14H8a1 1 0 000 2h8a1 1 0 000-2zm0-4h-6a1 1 0 000 2h6a1 1 0 000-2zm4-6h-3V3a1 1 0 00-2 0v1h-2V3a1 1 0 00-2 0v1H9V3a1 1 0 00-2 0v1H4a1 1 0 00-1 1v14a3 3 0 003 3h12a3 3 0 003-3V5a1 1 0 00-1-1zm-1 15a1 1 0 01-1 1H6a1 1 0 01-1-1V6h2v1a1 1 0 002 0V6h2v1a1 1 0 002 0V6h2v1a1 1 0 002 0V6h2z"/></svg>

<svg xmlns="http://www.w3.org/2000/svg" data-name="Layer 1" viewBox="0 0 24 24"><path d="M16,14H8a1,1,0,0,0,0,2h8a1,1,0,0,0,0-2Zm0-4H10a1,1,0,0,0,0,2h6a1,1,0,0,0,0-2Zm4-6H17V3a1,1,0,0,0-2,0V4H13V3a1,1,0,0,0-2,0V4H9V3A1,1,0,0,0,7,3V4H4A1,1,0,0,0,3,5V19a3,3,0,0,0,3,3H18a3,3,0,0,0,3-3V5A1,1,0,0,0,20,4ZM19,19a1,1,0,0,1-1,1H6a1,1,0,0,1-1-1V6H7V7A1,1,0,0,0,9,7V6h2V7a1,1,0,0,0,2,0V6h2V7a1,1,0,0,0,2,0V6h2Z"/></svg>
